Newaita-dark/.DP/16/youtube-indicator-light-sync0.svg

<svg xmlns="http://www.w3.org/2000/svg" xmlns:xlink="http://www.w3.org/1999/xlink" width="16px" height="16px" viewBox="0 0 16 16" version="1.1">
<g id="surface1">
<path style=" stroke:none;fill-rule:nonzero;fill:rgb(93.333334%,93.333334%,93.333334%);fill-opacity:1;" d="M 10.375 11.078125 C 10.300781 11.152344 10.253906 11.257812 10.253906 11.371094 C 10.253906 11.398438 10.257812 11.425781 10.261719 11.453125 C 10.28125 12.019531 10.507812 12.574219 10.933594 13.003906 C 11.363281 13.433594 11.921875 13.65625 12.484375 13.679688 C 12.511719 13.683594 12.539062 13.6875 12.570312 13.6875 C 12.796875 13.6875 12.980469 13.5 12.980469 13.273438 C 12.980469 13.042969 12.796875 12.859375 12.570312 12.859375 C 12.542969 12.859375 12.515625 12.863281 12.488281 12.867188 C 12.136719 12.847656 11.785156 12.699219 11.511719 12.425781 C 11.238281 12.152344 11.09375 11.804688 11.074219 11.453125 C 11.078125 11.425781 11.082031 11.398438 11.082031 11.371094 C 11.082031 11.140625 10.894531 10.957031 10.667969 10.957031 C 10.550781 10.957031 10.449219 11.003906 10.375 11.078125 Z M 10.375 11.078125 "/>
<path style=" stroke:none;fill-rule:nonzero;fill:rgb(93.333334%,93.333334%,93.333334%);fill-opacity:1;" d="M 14.761719 11.664062 C 14.839844 11.589844 14.882812 11.484375 14.882812 11.371094 C 14.882812 11.34375 14.882812 11.3125 14.875 11.289062 C 14.855469 10.722656 14.632812 10.167969 14.203125 9.738281 C 13.773438 9.308594 13.214844 9.085938 12.652344 9.0625 C 12.625 9.058594 12.597656 9.054688 12.570312 9.054688 C 12.339844 9.054688 12.15625 9.238281 12.15625 9.46875 C 12.15625 9.699219 12.339844 9.882812 12.570312 9.882812 C 12.597656 9.882812 12.625 9.878906 12.648438 9.875 C 13.003906 9.894531 13.351562 10.039062 13.625 10.316406 C 13.898438 10.589844 14.046875 10.9375 14.066406 11.289062 C 14.058594 11.316406 14.058594 11.34375 14.058594 11.371094 C 14.058594 11.601562 14.242188 11.785156 14.46875 11.785156 C 14.585938 11.785156 14.6875 11.738281 14.761719 11.664062 Z M 14.761719 11.664062 "/>
<path style=" stroke:none;fill-rule:nonzero;fill:rgb(93.333334%,93.333334%,93.333334%);fill-opacity:1;" d="M 7.917969 2.910156 C 7.917969 2.910156 3.585938 2.910156 2.503906 3.195312 C 1.921875 3.351562 1.445312 3.832031 1.285156 4.425781 C 1 5.507812 1 7.753906 1 7.753906 C 1 7.753906 1 10.011719 1.285156 11.082031 C 1.445312 11.675781 1.910156 12.140625 2.503906 12.300781 C 3.597656 12.597656 7.917969 12.597656 7.917969 12.597656 C 7.917969 12.597656 8.992188 12.597656 10.203125 12.5625 C 10.023438 12.203125 9.921875 11.800781 9.921875 11.371094 C 9.921875 9.90625 11.101562 8.726562 12.570312 8.726562 C 13.472656 8.726562 14.265625 9.171875 14.742188 9.859375 C 14.839844 8.839844 14.839844 7.765625 14.839844 7.765625 C 14.839844 7.765625 14.851562 5.507812 14.554688 4.425781 C 14.394531 3.832031 13.925781 3.363281 13.332031 3.207031 C 12.25 2.910156 7.917969 2.910156 7.917969 2.910156 Z M 6.597656 5.21875 C 6.601562 5.21875 6.609375 5.21875 6.613281 5.21875 C 6.671875 5.222656 6.726562 5.238281 6.773438 5.265625 L 10.457031 7.441406 C 10.675781 7.570312 10.675781 7.886719 10.457031 8.015625 L 6.773438 10.195312 C 6.550781 10.324219 6.269531 10.164062 6.269531 9.90625 L 6.269531 5.554688 C 6.269531 5.371094 6.417969 5.222656 6.597656 5.21875 Z M 6.597656 5.21875 "/>
</g>
</svg>

<svg xmlns="http://www.w3.org/2000/svg" width="16" height="16"><g fill="#bdbdbd"><path d="M10.375 11.078a.417.417 0 0 0-.113.375c.02.567.246 1.121.672 1.55.43.43.988.653 1.55.677.028.004.055.008.086.008.227 0 .41-.188.41-.415a.411.411 0 0 0-.492-.406 1.501 1.501 0 0 1-.976-.441 1.487 1.487 0 0 1-.438-.973.414.414 0 0 0-.7-.375zm0 0M14.762 11.664a.4.4 0 0 0 .12-.293c0-.027 0-.059-.007-.082a2.29 2.29 0 0 0-.672-1.55 2.321 2.321 0 0 0-1.55-.677.412.412 0 0 0-.496.406.412.412 0 0 0 .491.407c.356.02.704.164.977.441.273.274.422.621.441.973-.007.027-.007.055-.007.082a.411.411 0 0 0 .703.293zm0 0"/><path d="M7.918 2.91s-4.332 0-5.414.285a1.76 1.76 0 0 0-1.219 1.23C1 5.509 1 7.755 1 7.755s0 2.258.285 3.328a1.73 1.73 0 0 0 1.219 1.219c1.094.297 5.414.297 5.414.297s1.074 0 2.285-.036a2.65 2.65 0 0 1-.281-1.19 2.64 2.64 0 0 1 2.648-2.645 2.63 2.63 0 0 1 2.172 1.132c.098-1.02.098-2.093.098-2.093s.012-2.258-.285-3.34a1.728 1.728 0 0 0-1.223-1.219C12.25 2.91 7.918 2.91 7.918 2.91zM6.598 5.22h.015c.059.004.114.02.16.047l3.684 2.175a.333.333 0 0 1 0 .575l-3.684 2.18a.336.336 0 0 1-.503-.29V5.555c0-.184.148-.332.328-.336zm0 0"/></g></svg>
